assets/shared/images/time-range.svg

<?xml version="1.0" encoding="UTF-8"?>
<svg xmlns="http://www.w3.org/2000/svg" height="1000" width="928.571"><path d="M71.424 928.576h160.704v-160.704h-160.704v160.704zm196.416 0h178.56v-160.704h-178.56v160.704zm-196.416 -196.416h160.704v-178.56h-160.704v178.56zm196.416 0h178.56v-178.56h-178.56v178.56zm-196.416 -214.272h160.704v-160.704h-160.704v160.704zm410.688 410.688h178.56v-160.704h-178.56v160.704zm-214.272 -410.688h178.56v-160.704h-178.56v160.704zm428.544 410.688h160.704v-160.704h-160.704v160.704zm-214.272 -196.416h178.56v-178.56h-178.56v178.56zm-196.416 -482.112v-160.704q0 -7.254 -5.301 -12.555t-12.555 -5.301h-35.712q-7.254 0 -12.555 5.301t-5.301 12.555v160.704q0 7.254 5.301 12.555t12.555 5.301h35.712q7.254 0 12.555 -5.301t5.301 -12.555zm410.688 482.112h160.704v-178.56h-160.704v178.56zm-214.272 -214.272h178.56v-160.704h-178.56v160.704zm214.272 0h160.704v-160.704h-160.704v160.704zm17.856 -267.84v-160.704q0 -7.254 -5.301 -12.555t-12.555 -5.301h-35.712q-7.254 0 -12.555 5.301t-5.301 12.555v160.704q0 7.254 5.301 12.555t12.555 5.301h35.712q7.254 0 12.555 -5.301t5.301 -12.555zm214.272 -35.712v714.24q0 29.016 -21.204 50.22t-50.22 21.204h-785.664q-29.016 0 -50.22 -21.204t-21.204 -50.22v-714.24q0 -29.016 21.204 -50.22t50.22 -21.204h71.424v-53.568q0 -36.828 26.226 -63.054t63.054 -26.226h35.712q36.828 0 63.054 26.226t26.226 63.054v53.568h214.272v-53.568q0 -36.828 26.226 -63.054t63.054 -26.226h35.712q36.828 0 63.054 26.226t26.226 63.054v53.568h71.424q29.016 0 50.22 21.204t21.204 50.22z" fill="#000000"/></svg>

<svg xmlns="http://www.w3.org/2000/svg" height="1000" width="928.571"><path d="M71.424 928.576h160.704V767.872H71.424v160.704zm196.416 0H446.4V767.872H267.84v160.704zM71.424 732.16h160.704V553.6H71.424v178.56zm196.416 0H446.4V553.6H267.84v178.56zM71.424 517.888h160.704V357.184H71.424v160.704zm410.688 410.688h178.56V767.872h-178.56v160.704zM267.84 517.888H446.4V357.184H267.84v160.704zm428.544 410.688h160.704V767.872H696.384v160.704zM482.112 732.16h178.56V553.6h-178.56v178.56zM285.696 250.048V89.344q0-7.254-5.3-12.555t-12.556-5.302h-35.712q-7.254 0-12.555 5.3t-5.3 12.556v160.704q0 7.254 5.3 12.555t12.555 5.3h35.712q7.254 0 12.555-5.3t5.3-12.555zM696.384 732.16h160.704V553.6H696.384v178.56zM482.112 517.888h178.56V357.184h-178.56v160.704zm214.272 0h160.704V357.184H696.384v160.704zm17.856-267.84V89.344q0-7.254-5.3-12.555t-12.556-5.302h-35.712q-7.254 0-12.555 5.3t-5.3 12.556v160.704q0 7.254 5.3 12.555t12.555 5.3h35.712q7.254 0 12.555-5.3t5.3-12.555zm214.272-35.712v714.24q0 29.016-21.204 50.22T857.088 1000H71.424q-29.016 0-50.22-21.204T0 928.576v-714.24q0-29.016 21.204-50.22t50.22-21.204h71.424V89.344q0-36.828 26.226-63.054T232.128.064h35.712q36.828 0 63.054 26.226t26.226 63.054v53.568h214.272V89.344q0-36.828 26.226-63.054T660.672.064h35.712q36.828 0 63.054 26.226t26.226 63.054v53.568h71.424q29.016 0 50.22 21.204t21.204 50.22z"/></svg>
